X: 11453
T: Eavesdropper, The
R: jig
M: 6/8
K: Gmajor
D|:GBB BAG|Bdd dBG|cee dBA|BAA A2 B|
GBB BAG|Bdd dBG|cee dBA|BGF G3:|
|:gfg afd|efg d2 B|cde dBG|BAA Adf|
gab afd|efg dBG|cee dBA|BGF G2:|

